src/distro-icons/alma.svg

<svg xmlns="http://www.w3.org/2000/svg" width="512" height="512" fill="none">
<circle cx="256" cy="256" r="256" fill="#fff"/>
<path fill="#86DA2F" d="M444.764 297.722c19.171-1.475 34.656 11.06 36.13 30.232 1.475 19.909-12.535 36.131-31.706 37.605-18.434 1.475-34.656-12.535-36.131-30.969-1.475-19.909 11.798-34.656 31.707-36.868Z"/>
<path fill="#24C2FF" d="M211.755 454.78c0-19.171 14.747-33.918 32.444-33.918 17.697 0 34.656 16.222 34.656 34.656 0 17.697-14.747 33.181-31.707 33.918-21.383 0-35.393-13.272-35.393-34.656Z"/>
<path fill="#FFCB12" d="M264.107 239.47c-2.95 1.475-4.425-.737-5.162-2.949-27.282-50.878-19.171-115.029 28.757-153.372 12.535-10.323 36.131-12.535 46.454-2.212 4.424 3.687 5.162 8.111 5.899 13.273 1.475 11.06 3.687 22.121 11.06 30.969 8.111 9.586 18.435 13.273 30.232 12.535 10.323 0 20.647-1.475 27.283 10.323 3.687 6.637 2.212 32.444-3.687 37.606-2.949 2.212-5.162.737-7.374 0-16.959-6.636-34.656-6.636-52.352-3.687-5.899.737-8.849-.737-8.849-7.374-.737-11.06-2.949-21.383-8.848-30.969-11.061-19.909-31.707-20.646-44.979-2.212-11.061 14.747-14.01 32.444-16.96 50.141-2.949 15.484-2.212 31.706-1.474 47.928 0 0-.738 0 0 0Z"/>
<path fill="#86DA2F" d="M282.543 250.531c-1.475-2.212-.738-4.424 1.474-5.899 42.03-38.343 104.706-45.717 153.372-8.111 12.535 10.323 20.646 31.707 14.01 44.242-2.95 5.161-6.636 7.373-11.061 8.848-10.323 4.424-19.908 8.848-26.545 18.434-6.636 9.586-8.111 20.646-5.161 32.444 2.212 9.586 5.899 19.909-3.687 28.757-5.162 5.162-30.232 9.586-36.868 5.162-2.95-2.212-2.212-4.424-1.475-7.374 2.212-18.434-2.212-35.393-8.848-51.615-2.212-5.899-1.475-8.849 4.424-10.323 10.323-2.95 19.909-8.111 27.282-15.485 16.222-15.485 12.535-35.393-8.848-44.242-16.959-7.373-34.656-5.899-51.615-4.424-16.222.737-31.707 5.162-46.454 9.586Z"/>
<path fill="#24C2FF" d="M272.958 269.702c2.212-2.212 3.687-1.474 5.899 0 48.666 29.495 73.737 87.746 51.616 144.523-5.899 14.748-25.071 29.495-39.081 25.808-5.898-1.475-8.848-4.424-11.797-8.111-6.637-8.848-14.01-16.959-25.071-20.646-11.798-3.687-22.121-1.475-32.444 4.424-8.848 5.162-17.696 11.798-28.757 5.162-6.636-3.687-17.697-26.545-15.485-33.919 1.475-2.949 4.425-2.949 7.374-2.949 18.434-2.95 33.181-11.798 47.191-23.596 4.425-3.687 8.111-3.687 11.798 1.475 5.899 8.848 13.273 16.222 22.858 21.383 19.172 11.061 37.606 1.475 39.818-20.646 2.212-18.434-4.424-34.656-10.323-50.878-6.636-14.747-14.747-28.757-23.596-42.03Z"/>
<path fill="#0069DA" d="M249.362 274.126c-2.949 14.748-9.586 28.758-18.434 41.293-26.545 39.817-64.888 56.039-112.079 51.615-16.96-1.474-30.97-15.484-32.444-29.494-.738-5.899.737-10.323 4.424-14.748 5.161-6.636 9.586-12.535 11.798-20.646 4.424-16.222-1.475-29.494-13.273-41.292-16.222-16.222-14.01-30.969 5.162-42.767 2.212-1.475 5.161-2.95 8.111-4.424 4.424-2.212 8.111-2.212 9.585 2.949 6.637 16.959 19.909 29.495 34.656 39.818 5.162 4.424 5.162 7.373.738 12.535-8.849 9.586-14.01 21.383-14.747 34.656-1.475 16.222 8.111 26.545 24.333 26.545 10.323 0 19.908-3.687 28.757-8.111 22.858-11.798 40.555-28.757 57.514-46.454 2.212-.737 2.95-2.212 5.899-1.475Z"/>
<path fill="#FF4649" d="M128.433 119.28c1.474 0 5.161.738 8.848 1.475 27.282 5.161 44.242-4.424 53.09-30.232 5.899-16.96 18.434-22.12 34.656-13.273.738 0 .738.738 1.475.738 16.959 9.585 16.959 11.06 6.636 25.808-8.848 11.797-13.272 25.07-15.484 39.08-1.475 8.111-4.425 9.585-11.798 6.636-11.798-4.424-24.333-4.424-36.868 0-14.01 4.424-19.909 16.959-15.485 30.969 5.899 18.434 22.121 26.545 36.131 36.131 14.01 9.586 30.232 14.747 45.716 21.384 2.212.737 5.899.737 5.162 4.424-.738 2.212-3.687 2.212-6.636 2.212-33.182 1.475-64.888-3.687-90.696-25.808-24.333-19.909-42.03-44.242-39.08-78.16 2.212-11.061 10.323-19.172 24.333-21.384Z"/>
<path fill="#0069DA" d="M67.97 326.479c-17.697 2.212-35.393-12.535-36.868-30.969-1.475-17.697 13.272-35.393 30.232-36.868 19.171-2.212 36.868 11.06 38.343 28.757.737 16.959-10.323 37.605-31.707 39.08Z"/>
<path fill="#FFCB12" d="M377.664 63.978c18.434-1.475 36.131 13.272 37.606 31.706 1.474 17.697-13.273 34.657-30.97 36.131-19.171 1.475-36.131-12.535-37.605-30.969-1.475-18.434 11.798-35.393 30.969-36.868Z"/>
<path fill="#FF4649" d="M185.21 77.988c2.212 19.171-11.061 35.393-30.969 38.343-16.96 2.212-34.657-11.798-36.869-28.02-2.212-21.384 9.586-36.868 29.495-39.08 18.434-2.212 36.131 11.797 38.343 28.757Z"/>
</svg>

<svg width="512" height="512" viewBox="0 0 512 512" fill="none" xmlns="http://www.w3.org/2000/svg">
<circle cx="256" cy="256" r="256" fill="white"/>
<path d="M444.764 297.722C463.935 296.247 479.42 308.782 480.894 327.954C482.369 347.863 468.359 364.085 449.188 365.559C430.754 367.034 414.532 353.024 413.057 334.59C411.582 314.681 424.855 299.934 444.764 297.722Z" fill="#86DA2F"/>
<path d="M211.755 454.78C211.755 435.609 226.502 420.862 244.199 420.862C261.896 420.862 278.855 437.084 278.855 455.518C278.855 473.215 264.108 488.699 247.148 489.436C225.765 489.436 211.755 476.164 211.755 454.78V454.78Z" fill="#24C2FF"/>
<path d="M264.107 239.47C261.157 240.945 259.682 238.733 258.945 236.521C231.663 185.643 239.774 121.492 287.702 83.1493C300.237 72.8262 323.833 70.6141 334.156 80.9372C338.58 84.624 339.318 89.0482 340.055 94.2098C341.53 105.27 343.742 116.331 351.115 125.179C359.226 134.765 369.55 138.452 381.347 137.714C391.67 137.714 401.994 136.239 408.63 148.037C412.317 154.674 410.842 180.481 404.943 185.643C401.994 187.855 399.781 186.38 397.569 185.643C380.61 179.007 362.913 179.007 345.217 181.956C339.318 182.693 336.368 181.219 336.368 174.582C335.631 163.522 333.419 153.199 327.52 143.613C316.459 123.704 295.813 122.967 282.541 141.401C271.48 156.148 268.531 173.845 265.581 191.542C262.632 207.026 263.369 223.248 264.107 239.47C264.107 239.47 263.369 239.47 264.107 239.47V239.47Z" fill="#FFCB12"/>
<path d="M282.543 250.531C281.068 248.319 281.805 246.107 284.017 244.632C326.047 206.289 388.723 198.915 437.389 236.521C449.924 246.844 458.035 268.228 451.399 280.763C448.449 285.924 444.763 288.136 440.338 289.611C430.015 294.035 420.43 298.459 413.793 308.045C407.157 317.631 405.682 328.691 408.632 340.489C410.844 350.075 414.531 360.398 404.945 369.246C399.783 374.408 374.713 378.832 368.077 374.408C365.127 372.196 365.865 369.984 366.602 367.034C368.814 348.6 364.39 331.641 357.754 315.419C355.542 309.52 356.279 306.57 362.178 305.096C372.501 302.146 382.087 296.985 389.46 289.611C405.682 274.126 401.995 254.218 380.612 245.369C363.653 237.996 345.956 239.47 328.997 240.945C312.775 241.682 297.29 246.107 282.543 250.531Z" fill="#86DA2F"/>
<path d="M272.958 269.702C275.17 267.49 276.645 268.228 278.857 269.702C327.523 299.197 352.594 357.448 330.473 414.225C324.574 428.973 305.402 443.72 291.392 440.033C285.494 438.558 282.544 435.609 279.595 431.922C272.958 423.074 265.585 414.963 254.524 411.276C242.726 407.589 232.403 409.801 222.08 415.7C213.232 420.862 204.384 427.498 193.323 420.862C186.687 417.175 175.626 394.317 177.838 386.943C179.313 383.994 182.263 383.994 185.212 383.994C203.646 381.044 218.393 372.196 232.403 360.398C236.828 356.711 240.514 356.711 244.201 361.873C250.1 370.721 257.474 378.095 267.059 383.256C286.231 394.317 304.665 384.731 306.877 362.61C309.089 344.176 302.453 327.954 296.554 311.732C289.918 296.985 281.807 282.975 272.958 269.702V269.702Z" fill="#24C2FF"/>
<path d="M249.362 274.126C246.413 288.874 239.776 302.884 230.928 315.419C204.383 355.236 166.04 371.458 118.849 367.034C101.889 365.56 87.8794 351.55 86.4047 337.54C85.6673 331.641 87.142 327.217 90.8289 322.792C95.9904 316.156 100.415 310.257 102.627 302.146C107.051 285.924 101.152 272.652 89.3541 260.854C73.1321 244.632 75.3442 229.885 94.5157 218.087C96.7278 216.612 99.6772 215.137 102.627 213.663C107.051 211.451 110.738 211.451 112.212 216.612C118.849 233.571 132.121 246.107 146.868 256.43C152.03 260.854 152.03 263.803 147.606 268.965C138.757 278.551 133.596 290.348 132.859 303.621C131.384 319.843 140.97 330.166 157.192 330.166C167.515 330.166 177.1 326.479 185.949 322.055C208.807 310.257 226.504 293.298 243.463 275.601C245.675 274.864 246.413 273.389 249.362 274.126Z" fill="#0069DA"/>
<path d="M128.433 119.28C129.907 119.28 133.594 120.018 137.281 120.755C164.563 125.916 181.523 116.331 190.371 90.523C196.27 73.5636 208.805 68.4021 225.027 77.2504C225.765 77.2504 225.765 77.9878 226.502 77.9878C243.461 87.5735 243.461 89.0482 233.138 103.796C224.29 115.593 219.866 128.866 217.654 142.876C216.179 150.987 213.229 152.461 205.856 149.512C194.058 145.088 181.523 145.088 168.988 149.512C154.978 153.936 149.079 166.471 153.503 180.481C159.402 198.915 175.624 207.026 189.634 216.612C203.644 226.198 219.866 231.359 235.35 237.996C237.562 238.733 241.249 238.733 240.512 242.42C239.774 244.632 236.825 244.632 233.876 244.632C200.694 246.107 168.988 240.945 143.18 218.824C118.847 198.915 101.15 174.582 104.1 140.664C106.312 129.603 114.423 121.492 128.433 119.28V119.28Z" fill="#FF4649"/>
<path d="M67.9701 326.479C50.2734 328.691 32.5766 313.944 31.1019 295.51C29.6272 277.813 44.3744 260.117 61.3338 258.642C80.5052 256.43 98.202 269.702 99.6767 287.399C100.414 304.358 89.3536 325.004 67.9701 326.479V326.479Z" fill="#0069DA"/>
<path d="M377.664 63.9779C396.098 62.5031 413.795 77.2504 415.27 95.6845C416.744 113.381 401.997 130.341 384.3 131.815C365.129 133.29 348.169 119.28 346.695 100.846C345.22 82.4119 358.493 65.4526 377.664 63.9779V63.9779Z" fill="#FFCB12"/>
<path d="M185.21 77.9878C187.422 97.1592 174.149 113.381 154.241 116.331C137.281 118.543 119.584 104.533 117.372 88.3109C115.16 66.9273 126.958 51.4427 146.867 49.2306C165.301 47.0185 182.998 61.0284 185.21 77.9878V77.9878Z" fill="#FF4649"/>
</svg>
